X: 30014
T: Off She Goes
R: jig
M: 6/8
K: Dmajor
|:F2 A G2 B|ABc d3|F2 A G2 B|AFD TE2 D|
F2 A G2 B|ABc d2 e|f2 d g2 f|1 edc d3:|2 edc d2||
|:e|faf def|gbg efg|faf def|ecA A2 g|
faf def|gbg efg|f2 d g2 f|1 edc d2:|2 edc d3||

